X: 4
T: Farrel O'Gara's
R: reel
M: 4/4
L: 1/8
K: Dmaj
A,D (3DDD A,DFA|BFAF EABc|d2 cA (3Bcd AF|GEFD EDB,D|
A,D (3DDD A,DFA|BFAF EABc|d2 cA (3Bcd AF|[1 GFEG FDDB,:|[2 GFEG FDD e||
fd (3ddd fdgd|fdgf edBc|dBBA Bcde|fdgf e2 de|
fd (3ddd fdgd|fdgf edBc|dBBA BAGF|GFEG FDD e||
fd (3ddd fdgd|fdgf edBc|dBBA Bcde|fdgf e2 fg|
a3 f edBc|defd BAFD|A,D (3DDD A,DFA| BFAF DCDB,|]


Tune 234	Setting 12933

